icons/lock.svg

<svg width="16" height="16" viewBox="0 0 16 16" fill="none" xmlns="http://www.w3.org/2000/svg">
<path d="M8 1.75C10.0711 1.75 11.75 3.42893 11.75 5.5V6.5H12L12.1025 6.50488C12.6067 6.55621 13 6.98232 13 7.5V13L12.9951 13.1025C12.9472 13.573 12.573 13.9472 12.1025 13.9951L12 14H4L3.89746 13.9951C3.42703 13.9472 3.05278 13.573 3.00488 13.1025L3 13V7.5C3 6.98232 3.39333 6.55621 3.89746 6.50488L4 6.5H4.25V5.5C4.25 3.42893 5.92893 1.75 8 1.75ZM4.5 12.5H11.5V8H4.5V12.5ZM8 9C8.55228 9 9 9.44772 9 10C9 10.2649 8.89573 10.5047 8.72754 10.6836L9 11.5H7L7.27148 10.6836C7.10357 10.5047 7 10.2647 7 10C7 9.44772 7.44772 9 8 9ZM8 3.25C6.75736 3.25 5.75 4.25736 5.75 5.5V6.5H10.25V5.5C10.25 4.25736 9.24264 3.25 8 3.25Z" fill="#909090" fill-opacity="0.9"/>
</svg>

<svg xmlns="http://www.w3.org/2000/svg" width="16" height="16" fill="none" viewBox="0 0 16 16"><path fill="#909090" fill-opacity=".9" d="M8 1.75a3.75 3.75 0 0 1 3.75 3.75v1H12l.102.005A1 1 0 0 1 13 7.5V13l-.005.102a1 1 0 0 1-.893.893L12 14H4l-.103-.005a1 1 0 0 1-.892-.893L3 13V7.5a1 1 0 0 1 .897-.995L4 6.5h.25v-1A3.75 3.75 0 0 1 8 1.75M4.5 12.5h7V8h-7zM8 9a1 1 0 0 1 .728 1.684L9 11.5H7l.271-.816A1 1 0 0 1 8 9m0-5.75A2.25 2.25 0 0 0 5.75 5.5v1h4.5v-1A2.25 2.25 0 0 0 8 3.25"/></svg>
